assets/icons/qvision/alternate_email.svg

<svg xmlns="http://www.w3.org/2000/svg" height="24" viewBox="0 0 24 24" width="24"><path d="M0 0h24v24H0z" fill="none"/><path d="M12 2C6.48 2 2 6.48 2 12s4.48 10 10 10h5v-2h-5c-4.34 0-8-3.66-8-8s3.66-8 8-8 8 3.66 8 8v1.43c0 .79-.71 1.57-1.5 1.57s-1.5-.78-1.5-1.57V12c0-2.76-2.24-5-5-5s-5 2.24-5 5 2.24 5 5 5c1.38 0 2.64-.56 3.54-1.47.65.89 1.77 1.47 2.96 1.47 1.97 0 3.5-1.6 3.5-3.57V12c0-5.52-4.48-10-10-10zm0 13c-1.66 0-3-1.34-3-3s1.34-3 3-3 3 1.34 3 3-1.34 3-3 3z"/></svg>

<svg width="24" height="24" viewBox="0 0 24 24" fill="none" xmlns="http://www.w3.org/2000/svg">
<g clip-path="url(#clip0_147_1725)">
<path d="M12 2C6.48 2 2 6.48 2 12C2 17.52 6.48 22 12 22H17V20H12C7.66 20 4 16.34 4 12C4 7.66 7.66 4 12 4C16.34 4 20 7.66 20 12V13.43C20 14.22 19.29 15 18.5 15C17.71 15 17 14.22 17 13.43V12C17 9.24 14.76 7 12 7C9.24 7 7 9.24 7 12C7 14.76 9.24 17 12 17C13.38 17 14.64 16.44 15.54 15.53C16.19 16.42 17.31 17 18.5 17C20.47 17 22 15.4 22 13.43V12C22 6.48 17.52 2 12 2ZM12 15C10.34 15 9 13.66 9 12C9 10.34 10.34 9 12 9C13.66 9 15 10.34 15 12C15 13.66 13.66 15 12 15Z" fill="#323232"/>
</g>
<defs>
<clipPath id="clip0_147_1725">
<rect width="24" height="24" fill="white"/>
</clipPath>
</defs>
</svg>
